X:17
T:The Headlands
M:4/4
L:1/8
K:A
e.c.|: dcBA A<c EA | FA d<e {a}fe (3efg | ae f<a {e}f>e d<c | {d}cB A<c B ec |
dcBA A<c EA | FA d<f {f}a2 gf | e<a Ac Bfed |1 c2 A2 A2 {BABA}ec :|2 c2 A2 A2 (3efg ||
[Aa]e f<a c<e cA | dA d<f {af}e2 (3efg | aef<a e/2fe/2 d<c | {d}cB A<c B2{cB}(3efg |
ae f<a c<e cA | dA d<f {f}a2 gf | e<a Ac Bfed | {cd}c2 A2 A2 (3efg ||
[Aa]e f<a c<e cA | dA d<f {af}e2 (3efg | ae f<a {e}f>e d<c | cB A<c {Bc}B2 e.c. |
dcBA A<c EA | FA d<f {f}a2 {ga}gf | e<a Ac Bfed | c2 A2 A2|]
